X:389
T: Die Gefangene (114d), S. 271
N: T0278
O: Luxemburg
S: Singendes Volk, Esch-Alzette 1937 posth.]
N: Esch-Alzette, fff Franziska Mller-Mller
R: Liebeslieder]
M: 2/4
L: 1/16
K: C
G2 | G6E2 | c2B2A2G2 | D2A2A4 |
G6c2 | GGG2F2G2 | E4z2
G2 | G6E2 | c2B2A2G2 | D2A2A4 |
G6c2 | G2G2F2G2 | E4z2

@@@ Tune index: 8443
